assets/icons/qvision/rotate_90_degrees_ccw.svg

<svg width="24" height="24" viewBox="0 0 24 24" fill="none" xmlns="http://www.w3.org/2000/svg">
<g clip-path="url(#clip0_147_3707)">
<path d="M7.34011 6.41L0.860107 12.9L7.35011 19.38L13.8401 12.9L7.34011 6.41ZM3.69011 12.9L7.35011 9.24L11.0001 12.9L7.34011 16.56L3.69011 12.9ZM19.3601 6.64C17.6101 4.88 15.3001 4 13.0001 4V0.759998L8.76011 5L13.0001 9.24V6C14.7901 6 16.5801 6.68 17.9501 8.05C20.6801 10.78 20.6801 15.22 17.9501 17.95C16.5801 19.32 14.7901 20 13.0001 20C12.0301 20 11.0601 19.79 10.1601 19.39L8.67011 20.88C10.0201 21.62 11.5101 22 13.0001 22C15.3001 22 17.6101 21.12 19.3601 19.36C22.8801 15.85 22.8801 10.15 19.3601 6.64Z" fill="#323232"/>
</g>
<defs>
<clipPath id="clip0_147_3707">
<rect width="24" height="24" fill="white"/>
</clipPath>
</defs>
</svg>

<svg xmlns="http://www.w3.org/2000/svg" height="24" viewBox="0 0 24 24" width="24"><path d="M0 0h24v24H0z" fill="none"/><path d="M7.34 6.41L.86 12.9l6.49 6.48 6.49-6.48-6.5-6.49zM3.69 12.9l3.66-3.66L11 12.9l-3.66 3.66-3.65-3.66zm15.67-6.26C17.61 4.88 15.3 4 13 4V.76L8.76 5 13 9.24V6c1.79 0 3.58.68 4.95 2.05 2.73 2.73 2.73 7.17 0 9.9C16.58 19.32 14.79 20 13 20c-.97 0-1.94-.21-2.84-.61l-1.49 1.49C10.02 21.62 11.51 22 13 22c2.3 0 4.61-.88 6.36-2.64 3.52-3.51 3.52-9.21 0-12.72z"/></svg>
